Origami/48x48/apps/mathematica.svg

<svg width="48" height="48" version="1.1" viewBox="0 0 48 48" xmlns="http://www.w3.org/2000/svg">
 <path d="m24.045203 5.0009984a1.1383401 1.1429798 0 0 0 -1.030406 0.5654803l-3.40875 5.8601613-6.189105-2.7280699a1.1383401 1.1429798 0 0 0 -1.589886 1.1603507l0.672857 6.7533972-6.6040833 1.445695a1.1383401 1.1429798 0 0 0 -0.6072763 1.877246l4.497698 5.066629-4.4969569 5.067373a1.1383401 1.1429798 0 0 0 0.6076468 1.876875l6.6044547 1.444207-0.671376 6.753398a1.1383401 1.1429798 0 0 0 1.590256 1.159978l6.188734-2.729188 3.410233 5.859418a1.1383401 1.1429798 0 0 0 1.96559 -3.81e-4l3.40912-5.860161 6.188736 2.727698a1.1383401 1.1429798 0 0 0 1.590255 -1.160351l-0.672859-6.752653 6.604084-1.446068a1.1383401 1.1429798 0 0 0 0.607278 -1.877246l-4.497699-5.066247 4.496957-5.067745a1.1383401 1.1429798 0 0 0 -0.607647 -1.876874l-6.604824-1.444207 0.671376-6.7533974a1.1383401 1.1429798 0 0 0 -1.590257 -1.1599787l-6.188365 2.7295581-3.410602-5.8597893a1.1383401 1.1429798 0 0 0 -0.935183 -0.5651083z" style="fill-rule:evenodd;opacity:.2"/>
 <path d="m24.045203 4.0009964a1.1383401 1.1429798 0 0 0 -1.030406 0.5654803l-3.40875 5.8601613-6.189105-2.7280699a1.1383401 1.1429798 0 0 0 -1.589886 1.1603507l0.672857 6.7533972-6.6040833 1.445695a1.1383401 1.1429798 0 0 0 -0.6072763 1.877246l4.497698 5.066629-4.4969569 5.067373a1.1383401 1.1429798 0 0 0 0.6076468 1.876875l6.6044547 1.444207-0.671376 6.753398a1.1383401 1.1429798 0 0 0 1.590256 1.159978l6.188734-2.729188 3.410233 5.859418a1.1383401 1.1429798 0 0 0 1.96559 -3.81e-4l3.40912-5.860161 6.188736 2.727698a1.1383401 1.1429798 0 0 0 1.590255 -1.160351l-0.672859-6.752653 6.604084-1.446068a1.1383401 1.1429798 0 0 0 0.607278 -1.877246l-4.497699-5.066247 4.496957-5.067745a1.1383401 1.1429798 0 0 0 -0.607647 -1.876874l-6.604824-1.444207 0.671376-6.7533974a1.1383401 1.1429798 0 0 0 -1.590257 -1.1599787l-6.188365 2.7295581-3.410602-5.8597893a1.1383401 1.1429798 0 0 0 -0.935183 -0.5651083z" style="fill-rule:evenodd;fill:#d6342a"/>
 <path d="m23.931641 4.0019531a1.1383401 1.1429798 0 0 0 -0.916016 0.5644531l-3.410156 5.8593748-6.189453-2.7265622a1.1383401 1.1429798 0 0 0 -1.589844 1.1601562l0.052734 0.53125a1.1383401 1.1429798 0 0 1 1.53711 -0.6914062l6.189453 2.7265622 3.410156-5.8593748a1.1383401 1.1429798 0 0 1 1.029297 -0.5644531 1.1383401 1.1429798 0 0 1 0.935547 0.5644531l3.410156 5.8593748 6.189453-2.7285154a1.1383401 1.1429798 0 0 1 1.53711 0.6855469l0.052734-0.5273437a1.1383401 1.1429798 0 0 0 -1.589844 -1.1582032l-6.189453 2.7285154-3.410156-5.8593748a1.1383401 1.1429798 0 0 0 -0.935547 -0.5644531 1.1383401 1.1429798 0 0 0 -0.113281 0zm11.664062 11.628906l-0.097656 0.978516 6.605469 1.445313a1.1383401 1.1429798 0 0 1 0.779296 0.615234 1.1383401 1.1429798 0 0 0 -0.779296 -1.615234l-6.507813-1.423829zm-23.193359 0.003907l-6.5058596 1.423828a1.1383401 1.1429798 0 0 0 -0.78125 1.617187 1.1383401 1.1429798 0 0 1 0.78125 -0.617187l6.6035156-1.445313-0.097656-0.978515zm26.253906 8.863281l-0.443359 0.5 4.498047 5.066406a1.1383401 1.1429798 0 0 1 0.173828 0.259766 1.1383401 1.1429798 0 0 0 -0.173828 -1.259766l-4.054688-4.566406zm-29.3125 0.003906l-4.0546875 4.566406a1.1383401 1.1429798 0 0 0 -0.171875 1.261719 1.1383401 1.1429798 0 0 1 0.171875 -0.261719l4.4980469-5.066406-0.4433594-0.5zm26.253906 8.865235l-0.097656 0.021484 0.621094 6.222656a1.1383401 1.1429798 0 0 0 0.052734 -0.470703l-0.576172-5.773437zm-23.193359 0.001953l-0.574219 5.77539a1.1383401 1.1429798 0 0 0 0.052734 0.472657l0.619141-6.226563-0.097656-0.021484z" style="fill-rule:evenodd;fill:#ffffff;opacity:.2"/>
 <path d="m15 13s1.955231 5.350659 0.972656 8.78125c-0.982574 3.430589-5.972656 7.292969-5.972656 7.292969s6.521491 0.366956 8.998047 2c2.476557 1.633045 4.996094 7.925781 4.996094 7.925781s3.345044-6.933429 4.74414-7.925781c1.399095-0.99235 9.261719-2.007813 9.261719-2.007813s-5.747662-5.583305-6.236328-7.140625c-0.488665-1.557328 1.236328-8.921875 1.236328-8.921875s-5.516562 2.996094-9.150391 2.996094c-3.63383 0-8.849609-3-8.849609-3zm15.244141 3.458984c-0.0062 0.03389-0.0075 0.03045-0.01367 0.06445-0.190554 1.047989-0.366785 2.151334-0.46875 3.148437-0.101966 0.997103-0.263862 1.713842 0.09375 2.853516 0.35527 1.132205 0.883275 1.635702 1.541015 2.439453 0.657741 0.803751 1.445272 1.671313 2.212891 2.486328 0.116989 0.124212 0.112991 0.111188 0.228516 0.232422-0.149795 0.02559-0.138752 0.01804-0.291016 0.04492-1.097983 0.193847-2.245721 0.419416-3.257813 0.673828-1.012091 0.254412-1.767529 0.374646-2.707031 1.041015-0.939438 0.666326-1.299195 1.342513-1.855469 2.203125-0.556271 0.860613-1.120839 1.851834-1.640624 2.806641-0.01164 0.02138-0.0099 0.01968-0.02148 0.04102-0.967923-1.826708-2.076489-3.844661-3.964844-5.089844-1.674754-1.104335-3.721813-1.499873-5.611328-1.800781 1.35412-1.421427 2.791187-3.124033 3.40625-5.271485 0.571613-1.995746 0.355417-3.997346 0.04102-5.753906 1.756856 0.716699 3.797785 1.421877 5.914051 1.421877 2.255545 0 4.506157-0.781903 6.394532-1.541016z" style="fill-rule:evenodd;opacity:.2"/>
 <path d="m15 12s1.955231 5.350659 0.972656 8.78125c-0.982574 3.430589-5.972656 7.292969-5.972656 7.292969s6.521491 0.366956 8.998047 2c2.476557 1.633045 4.996094 7.925781 4.996094 7.925781s3.345044-6.933429 4.74414-7.925781c1.399095-0.99235 9.261719-2.007813 9.261719-2.007813s-5.747662-5.583305-6.236328-7.140625c-0.488665-1.557328 1.236328-8.921875 1.236328-8.921875s-5.516562 2.996094-9.150391 2.996094c-3.63383 0-8.849609-3-8.849609-3zm15.244141 3.458984c-0.0062 0.03389-0.007502 0.030453-0.013672 0.064454-0.190554 1.047989-0.366785 2.151334-0.46875 3.148437-0.101966 0.997103-0.263862 1.713842 0.09375 2.853516 0.35527 1.132205 0.883275 1.635702 1.541015 2.439453 0.657741 0.803751 1.445272 1.671313 2.212891 2.486328 0.116989 0.124212 0.112991 0.111188 0.228516 0.232422-0.149795 0.02559-0.138752 0.018042-0.291016 0.044922-1.097983 0.193847-2.245721 0.419416-3.257813 0.673828-1.012091 0.254412-1.767529 0.374646-2.707031 1.041015-0.939438 0.666326-1.299195 1.342513-1.855469 2.203125-0.556271 0.860613-1.120839 1.851834-1.640624 2.806641-0.01164 0.02138-0.009905 0.019676-0.021485 0.041016-0.967923-1.826708-2.076489-3.844661-3.964844-5.089844-1.674754-1.104335-3.721813-1.499873-5.611328-1.800781 1.35412-1.421427 2.791187-3.124033 3.40625-5.271485 0.571613-1.995746 0.355417-3.997346 0.041016-5.753906 1.756867 0.716697 3.797796 1.421875 5.914062 1.421875 2.255545 0 4.506157-0.781903 6.394532-1.541016z" style="fill-rule:evenodd;fill:#ffffff"/>
</svg>

<svg xmlns="http://www.w3.org/2000/svg" width="48" height="48" version="1.1" viewBox="0 0 48 48">
 <path d="M 24.045203,5.0009984 A 1.1383401,1.1429798 0 0 0 23.014797,5.5664787 L 19.606047,11.42664 13.416942,8.6985701 a 1.1383401,1.1429798 0 0 0 -1.589886,1.1603507 l 0.672857,6.7533972 -6.6040833,1.445695 a 1.1383401,1.1429798 0 0 0 -0.6072763,1.877246 l 4.497698,5.066629 -4.4969569,5.067373 a 1.1383401,1.1429798 0 0 0 0.6076468,1.876875 l 6.6044547,1.444207 -0.671376,6.753398 a 1.1383401,1.1429798 0 0 0 1.590256,1.159978 l 6.188734,-2.729188 3.410233,5.859418 a 1.1383401,1.1429798 0 0 0 1.96559,-3.81e-4 l 3.40912,-5.860161 6.188736,2.727698 a 1.1383401,1.1429798 0 0 0 1.590255,-1.160351 l -0.672859,-6.752653 6.604084,-1.446068 a 1.1383401,1.1429798 0 0 0 0.607278,-1.877246 L 38.213748,24.99854 42.710705,19.930795 A 1.1383401,1.1429798 0 0 0 42.103058,18.053921 L 35.498234,16.609714 36.16961,9.8563166 A 1.1383401,1.1429798 0 0 0 34.579353,8.6963379 L 28.390988,11.425896 24.980386,5.5661067 A 1.1383401,1.1429798 0 0 0 24.045203,5.0009984 Z" style="opacity:0.2;fill-rule:evenodd"/>
 <path style="fill:#d6342a;fill-rule:evenodd" d="m 24.045203,4.0009964 a 1.1383401,1.1429798 0 0 0 -1.030406,0.5654803 l -3.40875,5.8601613 -6.189105,-2.7280699 a 1.1383401,1.1429798 0 0 0 -1.589886,1.1603507 l 0.672857,6.7533972 -6.6040833,1.445695 a 1.1383401,1.1429798 0 0 0 -0.6072763,1.877246 l 4.497698,5.066629 -4.4969569,5.067373 a 1.1383401,1.1429798 0 0 0 0.6076468,1.876875 l 6.6044547,1.444207 -0.671376,6.753398 a 1.1383401,1.1429798 0 0 0 1.590256,1.159978 l 6.188734,-2.729188 3.410233,5.859418 a 1.1383401,1.1429798 0 0 0 1.96559,-3.81e-4 l 3.40912,-5.860161 6.188736,2.727698 a 1.1383401,1.1429798 0 0 0 1.590255,-1.160351 l -0.672859,-6.752653 6.604084,-1.446068 a 1.1383401,1.1429798 0 0 0 0.607278,-1.877246 l -4.497699,-5.066247 4.496957,-5.067745 A 1.1383401,1.1429798 0 0 0 42.103058,17.053919 L 35.498234,15.609712 36.16961,8.8563146 A 1.1383401,1.1429798 0 0 0 34.579353,7.6963359 L 28.390988,10.425894 24.980386,4.5661047 A 1.1383401,1.1429798 0 0 0 24.045203,4.0009964 Z"/>
 <path style="opacity:0.2;fill:#ffffff;fill-rule:evenodd" d="M 23.931641 4.0019531 A 1.1383401 1.1429798 0 0 0 23.015625 4.5664062 L 19.605469 10.425781 L 13.416016 7.6992188 A 1.1383401 1.1429798 0 0 0 11.826172 8.859375 L 11.878906 9.390625 A 1.1383401 1.1429798 0 0 1 13.416016 8.6992188 L 19.605469 11.425781 L 23.015625 5.5664062 A 1.1383401 1.1429798 0 0 1 24.044922 5.0019531 A 1.1383401 1.1429798 0 0 1 24.980469 5.5664062 L 28.390625 11.425781 L 34.580078 8.6972656 A 1.1383401 1.1429798 0 0 1 36.117188 9.3828125 L 36.169922 8.8554688 A 1.1383401 1.1429798 0 0 0 34.580078 7.6972656 L 28.390625 10.425781 L 24.980469 4.5664062 A 1.1383401 1.1429798 0 0 0 24.044922 4.0019531 A 1.1383401 1.1429798 0 0 0 23.931641 4.0019531 z M 35.595703 15.630859 L 35.498047 16.609375 L 42.103516 18.054688 A 1.1383401 1.1429798 0 0 1 42.882812 18.669922 A 1.1383401 1.1429798 0 0 0 42.103516 17.054688 L 35.595703 15.630859 z M 12.402344 15.634766 L 5.8964844 17.058594 A 1.1383401 1.1429798 0 0 0 5.1152344 18.675781 A 1.1383401 1.1429798 0 0 1 5.8964844 18.058594 L 12.5 16.613281 L 12.402344 15.634766 z M 38.65625 24.498047 L 38.212891 24.998047 L 42.710938 30.064453 A 1.1383401 1.1429798 0 0 1 42.884766 30.324219 A 1.1383401 1.1429798 0 0 0 42.710938 29.064453 L 38.65625 24.498047 z M 9.34375 24.501953 L 5.2890625 29.068359 A 1.1383401 1.1429798 0 0 0 5.1171875 30.330078 A 1.1383401 1.1429798 0 0 1 5.2890625 30.068359 L 9.7871094 25.001953 L 9.34375 24.501953 z M 35.597656 33.367188 L 35.5 33.388672 L 36.121094 39.611328 A 1.1383401 1.1429798 0 0 0 36.173828 39.140625 L 35.597656 33.367188 z M 12.404297 33.369141 L 11.830078 39.144531 A 1.1383401 1.1429798 0 0 0 11.882812 39.617188 L 12.501953 33.390625 L 12.404297 33.369141 z"/>
 <path d="m 15,13 c 0,0 1.955231,5.350659 0.972656,8.78125 C 14.990082,25.211839 10,29.074219 10,29.074219 c 0,0 6.521491,0.366956 8.998047,2 C 21.474604,32.707264 23.994141,39 23.994141,39 c 0,0 3.345044,-6.933429 4.74414,-7.925781 C 30.137376,30.081869 38,29.066406 38,29.066406 c 0,0 -5.747662,-5.583305 -6.236328,-7.140625 C 31.275007,20.368453 33,13.003906 33,13.003906 33,13.003906 27.483438,16 23.849609,16 20.215779,16 15,13 15,13 Z m 15.244141,3.458984 c -0.0062,0.03389 -0.0075,0.03045 -0.01367,0.06445 -0.190554,1.047989 -0.366785,2.151334 -0.46875,3.148437 -0.101966,0.997103 -0.263862,1.713842 0.09375,2.853516 0.35527,1.132205 0.883275,1.635702 1.541015,2.439453 0.657741,0.803751 1.445272,1.671313 2.212891,2.486328 0.116989,0.124212 0.112991,0.111188 0.228516,0.232422 -0.149795,0.02559 -0.138752,0.01804 -0.291016,0.04492 -1.097983,0.193847 -2.245721,0.419416 -3.257813,0.673828 -1.012091,0.254412 -1.767529,0.374646 -2.707031,1.041015 -0.939438,0.666326 -1.299195,1.342513 -1.855469,2.203125 -0.556271,0.860613 -1.120839,1.851834 -1.640624,2.806641 -0.01164,0.02138 -0.0099,0.01968 -0.02148,0.04102 -0.967923,-1.826708 -2.076489,-3.844661 -3.964844,-5.089844 -1.674754,-1.104335 -3.721813,-1.499873 -5.611328,-1.800781 1.35412,-1.421427 2.791187,-3.124033 3.40625,-5.271485 0.571613,-1.995746 0.355417,-3.997346 0.04102,-5.753906 C 19.692414,17.294822 21.733343,18 23.849609,18 c 2.255545,0 4.506157,-0.781903 6.394532,-1.541016 z" style="opacity:0.2;fill-rule:evenodd"/>
 <path style="fill:#ffffff;fill-rule:evenodd" d="M 15 12 C 15 12 16.955231 17.350659 15.972656 20.78125 C 14.990082 24.211839 10 28.074219 10 28.074219 C 10 28.074219 16.521491 28.441175 18.998047 30.074219 C 21.474604 31.707264 23.994141 38 23.994141 38 C 23.994141 38 27.339185 31.066571 28.738281 30.074219 C 30.137376 29.081869 38 28.066406 38 28.066406 C 38 28.066406 32.252338 22.483101 31.763672 20.925781 C 31.275007 19.368453 33 12.003906 33 12.003906 C 33 12.003906 27.483438 15 23.849609 15 C 20.215779 15 15 12 15 12 z M 30.244141 15.458984 C 30.237941 15.492874 30.236639 15.489437 30.230469 15.523438 C 30.039915 16.571427 29.863684 17.674772 29.761719 18.671875 C 29.659753 19.668978 29.497857 20.385717 29.855469 21.525391 C 30.210739 22.657596 30.738744 23.161093 31.396484 23.964844 C 32.054225 24.768595 32.841756 25.636157 33.609375 26.451172 C 33.726364 26.575384 33.722366 26.56236 33.837891 26.683594 C 33.688096 26.709184 33.699139 26.701636 33.546875 26.728516 C 32.448892 26.922363 31.301154 27.147932 30.289062 27.402344 C 29.276971 27.656756 28.521533 27.77699 27.582031 28.443359 C 26.642593 29.109685 26.282836 29.785872 25.726562 30.646484 C 25.170291 31.507097 24.605723 32.498318 24.085938 33.453125 C 24.074298 33.474505 24.076033 33.472801 24.064453 33.494141 C 23.09653 31.667433 21.987964 29.64948 20.099609 28.404297 C 18.424855 27.299962 16.377796 26.904424 14.488281 26.603516 C 15.842401 25.182089 17.279468 23.479483 17.894531 21.332031 C 18.466144 19.336285 18.249948 17.334685 17.935547 15.578125 C 19.692414 16.294822 21.733343 17 23.849609 17 C 26.105154 17 28.355766 16.218097 30.244141 15.458984 z"/>
</svg>
